src/img/twitter.svg

<svg width="23" height="18" viewBox="0 0 23 18" fill="none" xmlns="http://www.w3.org/2000/svg">
<path d="M7.41075 18C15.713 18 20.2546 11.0731 20.2546 5.07669C20.2546 4.88285 20.2546 4.68625 20.2464 4.49241C21.1306 3.84789 21.8937 3.04993 22.5 2.13592C21.6741 2.50262 20.7988 2.7443 19.9026 2.85312C20.8466 2.28495 21.5536 1.391 21.8923 0.337403C21.0054 0.86647 20.0346 1.23787 19.0226 1.43534C18.3423 0.705724 17.4419 0.222372 16.4611 0.0601592C15.4803 -0.102054 14.4737 0.0659244 13.5973 0.538075C12.7209 1.01023 12.0236 1.7602 11.6134 2.67182C11.2031 3.58345 11.1029 4.60585 11.3281 5.58066C9.53339 5.49005 7.77762 5.02057 6.17468 4.20269C4.57175 3.3848 3.15744 2.23678 2.0235 0.833069C1.44784 1.83421 1.27216 3.01843 1.53214 4.14526C1.79211 5.27209 2.46825 6.25705 3.42325 6.90013C2.70762 6.87565 2.00772 6.68215 1.38 6.33524V6.39754C1.38123 7.44631 1.74205 8.46247 2.40145 9.27429C3.06086 10.0861 3.9784 10.6438 4.999 10.853C4.61161 10.9605 4.21144 11.014 3.80963 11.0122C3.52635 11.0131 3.24365 10.9867 2.96537 10.9333C3.25383 11.8361 3.8155 12.6254 4.57171 13.1908C5.32793 13.7561 6.24081 14.0691 7.1825 14.0859C5.58276 15.3511 3.60668 16.0373 1.5725 16.034C1.21407 16.0355 0.855882 16.0147 0.5 15.9716C2.56458 17.297 4.96228 18.0008 7.41075 18Z" fill="#23A6F0"/>
</svg>

<svg width="23" height="18" fill="none" xmlns="http://www.w3.org/2000/svg"><path d="M7.41 18c8.303 0 12.845-6.927 12.845-12.923 0-.194 0-.39-.009-.585A9.228 9.228 0 0 0 22.5 2.136a9.105 9.105 0 0 1-2.597.717 4.565 4.565 0 0 0 1.99-2.516c-.888.53-1.858.9-2.87 1.098a4.491 4.491 0 0 0-5.425-.897 4.537 4.537 0 0 0-1.985 2.134 4.579 4.579 0 0 0-.285 2.909c-1.795-.091-3.55-.56-5.153-1.378A12.839 12.839 0 0 1 2.024.833a4.581 4.581 0 0 0-.492 3.312A4.554 4.554 0 0 0 3.423 6.9a4.545 4.545 0 0 1-2.043-.565v.063a4.572 4.572 0 0 0 1.021 2.876A4.516 4.516 0 0 0 5 10.853a4.374 4.374 0 0 1-1.19.16c-.283 0-.565-.026-.844-.08.289.903.85 1.692 1.607 2.258.756.565 1.669.878 2.61.895a9.019 9.019 0 0 1-5.61 1.948A8.62 8.62 0 0 1 .5 15.972 12.783 12.783 0 0 0 7.41 18Z" fill="#23A6F0"/></svg>
